X:1
T:Zemlja pleše
T:Zemlja pleše
T:Mojmir Sepe
T:Gregor Strniša
C:Mojmir Sepe
Z:Gregor Strniša
%%score 1 { 2 | 3 }
L:1/8
M:2/2
K:Bb
V:1 treble nm="Voice"
V:2 treble nm="Piano"
V:3 bass 
V:1
 z8 | z8 | z8 | z8 |: B2 c2 c4 | A2 B2 B4 | G2 A2 A2 F2 | D4 F2 ^F2 | G3 G- G4- | G2 z2 F2 ^F2 | %10
w: ||||Sre- di zvezd|noč in dan|se vr- ti naš|svet. Zem- lja|ple- še *|* tja med|
 G3 G- G4- | G6 z2 | c2 d2 d4 | B2 c2 c4 | A2 B2 B2 G2 | E4 F2 ^F2 | G3 G- G4- | G2 z2 F2 ^F2 | %18
w: zve- zde. *||Pa- de sneg,|pri- de maj,|pri- de spet je-|sen. Ti- soč|let že *|* zem- lja|
 G3 G- G4- | G6 z2 | B2 c2 c4 | A2 B2 B4 | G2 A2 A2 F2 | D4 F2 ^F2 | G3 G- G4- | G2 z2 B2 =B2 | %26
w: ple- še. *||O- ri- on|sa- sko- fon|me- sec kon- tra-|bas. Zem- lja|ple- še. *|* tja med|
 c3 c- c4- | c6 z2 | c2 d2 d4 | B2 c2 c4 | A2 c2 c2 B2 | d2 e2 e2 d2 | G3 G- G4 |1 A4 A4 | B8- | %35
w: zve- zde *||in znjo grad,|vsak o- blak|in vse ce- ste|in ce- lo ta|na- jin *|ma- li|dom.|
 B4 z4 :|2 A4 A4 || d8 | d2 e2 e2 d2 | G4 G4 | d4 d4 | B8- | B8- | B8- | B8 |] %45
w: |ma- li|dom,|in ce- lo ta|na- jin|ma- li|dom.||||
V:2
 [_GBd]4 [FAe]4 | [=E_Ac]3 [_EGd]- [EGd]4 | F2- [B,CF]2 ^F2- [^A,=EF]2 | %3
 [B,EG]2 [A,DF]2 [B,EG]2 [CFA]2 |: [D-GB]2 [DAc]2 [DAc]4 | [DFA]2 [GB]2 [DGB]4 | %6
 [D-G]2 [DA]2 [^C-A]2 [CF]2 | [B,D]4 F2 [A,^C^F]2 | G2 ([B,-D-G]2 [B,-D-F]2) [B,-D-^F][B,DG-] | %9
 G2- [B,DG]2 F2 ^F2 | G2 [B,-E-G]2 [B,-E-F]2 [B,-E-^F][B,EG-] | G2 ((([B,EG-]2 G2))) [B,EG]2 | %12
 [E-Gc]2 [EBd]2 [EBd]4 | [EGB]2 [Ac]2 [EAc]4 | [FA]2 [EGB]2 [E-B]2 [EG]2 | [CE]4 F2 ^F2 | %16
 G2 ([B,-E-G]2 [B,-E-F]2) [B,-E-^F][B,EG-] | G2- [A,EG]2 F2 ^F2 | G2- [B,DG]2 F2 D[G,CE]- | %19
 [G,CE]2 [A,DF]2 [B,EG]2 [CFA]2 | [D-GB]2 [DAc]2 [DAc]4 | [DFA]2 [GB]2 [DGB]4 | %22
 [D-G]2 [DA]2 [^C-A]2 [CF]2 | [B,D]4 F2 [A,^C^F]2 | G2 ([B,-D-G]2 [B,-D-F]2) [B,-D-^F][B,DG-] | %25
 G2- [B,DG]2 [D-G-B]2 [DG=B]2 | c2 [E-G-c]2 [E-G-B]2 [E-G-=B][EGc-] | c2 (([EGc-]2 c2)) [EG]2 | %28
 [E-G-c]2 [EGd]2 [EGd]4 | [E-_G-B]2 [EGc]2 [EGc]4 | [D-F-A]2 [DFc]2 [D-F-c]2 [DFB]2 | %31
 [C-_G-B-d]2 [CGBe]2 [F-A-e]2 [FAd]2 | [D-=E-G]3 [DEG]- [DEG]4 |1 [EGA]4 [EGA]4 | [DGB]8 | %35
 [B,EG]2 [A,DF]2 [B,EG]2 [CFA]2 :|2 [EGA]4 [EGA]4 || [F_Ad]8 | [Fd]2 [Ge]2 [Ge]2 [Fd]2 | %39
 [D=EG]4 G4 | [E_Gd]4 d4 | [DFB]8- | [DFB]8- | [DFB]8 | [Bdfb]8 |] %45
V:3
 C4 =B,4 | B,3 A,- A,4 | D,4 _D,4 | C,4 F,,4 |: B,,4 F,,4 | B,,4 F,,4 | B,,4 F,,4 | %7
 B,,2 A,,2 G,,2 F,,2 | B,,4 F,2 ^F,G,- | G,4 =B,,4 | C,4 F,2 ^F,G,- | G,4 G,,4 | C,4 G,,4 | %13
 C,4 G,,4 | C,4 G,,4 | C,2 G,,2 D,2 _D,2 | C,4 F,2 ^F,G,- | G,4 F,2 F,,2 | B,,4 =B,,3 C,- | %19
 C,4 F,,4 | B,,4 F,,4 | B,,4 F,,4 | B,,4 F,,4 | B,,2 A,,2 G,,2 F,,2 | B,,4 F,2 ^F,G,- | %25
 G,4 [B,,_A,]4 | [E,G,]4 B,2 =B,C- | C4 B,4 | E,4 B,4 | C2 B,2 _A,2 _G,2 | F,4 B,,4 | %31
 _A,,4 [G,,=B,]4 | [C,B,]8 |1 [F,A,]4 F,,4 | B,,4 F,,4 | C,4 F,,4 :|2 F,4 C,4 || D,2 F,2 _A,2 C2 | %38
 [G,,=B,]4 A,,2 =B,,2 | [C,B,]8 | [F,A,]4 F,,4 | B,,2 C,2 C,4 | A,,2 B,,2 B,,3 G,,- | %43
 G,,2 A,,2 A,,2 F,,2 | B,,,8 |] %45

